Newaita/actions/24/download-later.svg

<svg height="24" viewBox="0 0 24 24" width="24" xmlns="http://www.w3.org/2000/svg"><g fill="#424242"><path d="m11.90625 2.171875c-4.640625 0-8.515625 3.152344-9.613281 7.441406h2.070312c1.035157-3.175781 4.011719-5.457031 7.542969-5.457031 4.398438 0 7.9375 3.539062 7.9375 7.9375s-3.539062 7.9375-7.9375 7.9375c-.335938 0-.667969-.019531-.992188-.058594v1.996094c.328126.03125.660157.050781.992188.050781 5.5 0 9.925781-4.425781 9.925781-9.925781 0-5.496094-4.425781-9.921875-9.925781-9.921875zm0 0"/><path d="m11.410156 5.148438c-.273437 0-.496094.222656-.496094.496093v6.449219c0 .550781.445313.992188.992188.992188.550781 0 .992188-.441407.992188-.992188v-6.449219c0-.273437-.21875-.496093-.496094-.496093zm0 0"/><path d="m18.492188 9.820312c-.070313-.265624-.34375-.421874-.609376-.351562l-6.230468 1.671875c-.53125.140625-.84375.683594-.699219 1.214844.140625.53125.683594.84375 1.214844.699219l6.230469-1.667969c.265624-.070313.421874-.34375.351562-.609375zm0 0"/><path d="m6.449219 17.550781h-1.984375v-4.945312c0-.277344.222656-.496094.496094-.496094h.992187c.277344 0 .496094.21875.496094.496094zm0 0"/><path d="m1.984375 17.054688h6.945313l-3.472657 4.964843zm0 0"/></g></svg>

<svg xmlns="http://www.w3.org/2000/svg" xmlns:xlink="http://www.w3.org/1999/xlink" width="24px" height="24px" viewBox="0 0 24 24" version="1.1">
<g id="surface1">
     <defs>
  <style id="current-color-scheme" type="text/css">
   .ColorScheme-Text { color:#424242; } .ColorScheme-Highlight { color:#eeeeee; }
  </style>
 </defs>
<path style="fill:currentColor" class="ColorScheme-Text" d="M 11.90625 2.171875 C 7.265625 2.171875 3.390625 5.324219 2.292969 9.613281 L 4.363281 9.613281 C 5.398438 6.4375 8.375 4.15625 11.90625 4.15625 C 16.304688 4.15625 19.84375 7.695312 19.84375 12.09375 C 19.84375 16.492188 16.304688 20.03125 11.90625 20.03125 C 11.570312 20.03125 11.238281 20.011719 10.914062 19.972656 L 10.914062 21.96875 C 11.242188 22 11.574219 22.019531 11.90625 22.019531 C 17.40625 22.019531 21.832031 17.59375 21.832031 12.09375 C 21.832031 6.597656 17.40625 2.171875 11.90625 2.171875 Z M 11.90625 2.171875 "/>
     <defs>
  <style id="current-color-scheme" type="text/css">
   .ColorScheme-Text { color:#424242; } .ColorScheme-Highlight { color:#eeeeee; }
  </style>
 </defs>
<path style="fill:currentColor" class="ColorScheme-Text" d="M 11.410156 5.148438 C 11.136719 5.148438 10.914062 5.371094 10.914062 5.644531 L 10.914062 12.09375 C 10.914062 12.644531 11.359375 13.085938 11.90625 13.085938 C 12.457031 13.085938 12.898438 12.644531 12.898438 12.09375 L 12.898438 5.644531 C 12.898438 5.371094 12.679688 5.148438 12.402344 5.148438 Z M 11.410156 5.148438 "/>
     <defs>
  <style id="current-color-scheme" type="text/css">
   .ColorScheme-Text { color:#424242; } .ColorScheme-Highlight { color:#eeeeee; }
  </style>
 </defs>
<path style="fill:currentColor" class="ColorScheme-Text" d="M 18.492188 9.820312 C 18.421875 9.554688 18.148438 9.398438 17.882812 9.46875 L 11.652344 11.140625 C 11.121094 11.28125 10.808594 11.824219 10.953125 12.355469 C 11.09375 12.886719 11.636719 13.199219 12.167969 13.054688 L 18.398438 11.386719 C 18.664062 11.316406 18.820312 11.042969 18.75 10.777344 Z M 18.492188 9.820312 "/>
     <defs>
  <style id="current-color-scheme" type="text/css">
   .ColorScheme-Text { color:#424242; } .ColorScheme-Highlight { color:#eeeeee; }
  </style>
 </defs>
<path style="fill:currentColor" class="ColorScheme-Text" d="M 6.449219 17.550781 L 4.464844 17.550781 L 4.464844 12.605469 C 4.464844 12.328125 4.6875 12.109375 4.960938 12.109375 L 5.953125 12.109375 C 6.230469 12.109375 6.449219 12.328125 6.449219 12.605469 Z M 6.449219 17.550781 "/>
     <defs>
  <style id="current-color-scheme" type="text/css">
   .ColorScheme-Text { color:#424242; } .ColorScheme-Highlight { color:#eeeeee; }
  </style>
 </defs>
<path style="fill:currentColor" class="ColorScheme-Text" d="M 1.984375 17.054688 L 8.929688 17.054688 L 5.457031 22.019531 Z M 1.984375 17.054688 "/>
</g>
</svg>
